src/pos-icons/music-note-eighth-dotted.svg

<svg height="24" viewBox="0 0 24 24" width="24" xmlns="http://www.w3.org/2000/svg"><path d="m12 3v10.55a4 4 0 1 0 2 3.45v-10h4v-4m-1.5 17a1.5 1.5 0 1 1 1.5-1.5 1.5 1.5 0 0 1 -1.5 1.5z"/></svg>

<?xml version="1.0" encoding="UTF-8"?><!DOCTYPE svg PUBLIC "-//W3C//DTD SVG 1.1//EN" "http://www.w3.org/Graphics/SVG/1.1/DTD/svg11.dtd"><svg xmlns="http://www.w3.org/2000/svg" xmlns:xlink="http://www.w3.org/1999/xlink" version="1.1" id="mdi-music-note-eighth-dotted" width="24" height="24" viewBox="0 0 24 24"><path d="M12 3V13.55A4 4 0 1 0 14 17V7H18V3M16.5 20A1.5 1.5 0 1 1 18 18.5A1.5 1.5 0 0 1 16.5 20Z" /></svg>
